outputs/icons/image/grid_on_round.svg

<svg xmlns="http://www.w3.org/2000/svg" width="1200" height="1200" fill="none"><g clip-path="url(#a)"><path fill="#000" d="M1000 100H200c-55 0-100 45-100 100v800c0 55 45 100 100 100h800c55 0 100-45 100-100V200c0-55-45-100-100-100m-600 900H250c-27.5 0-50-22.5-50-50V800h200zm0-300H200V500h200zm0-300H200V250c0-27.5 22.5-50 50-50h150zm300 600H500V800h200zm0-300H500V500h200zm0-300H500V200h200zm250 600H800V800h200v150c0 27.5-22.5 50-50 50m50-300H800V500h200zm0-300H800V200h150c27.5 0 50 22.5 50 50z"/></g><defs><clipPath id="a"><path fill="#fff" d="M0 0h1200v1200H0z"/></clipPath></defs></svg>

<svg width="1200" height="1200" viewBox="0 0 1200 1200" fill="none" xmlns="http://www.w3.org/2000/svg"><g clip-path="url(#clip0_238_2753)"><path d="M1000 100H200C145 100 100 145 100 200V1000C100 1055 145 1100 200 1100H1000C1055 1100 1100 1055 1100 1000V200C1100 145 1055 100 1000 100ZM400 1000H250C222.5 1000 200 977.5 200 950V800H400V1000ZM400 700H200V500H400V700ZM400 400H200V250C200 222.5 222.5 200 250 200H400V400ZM700 1000H500V800H700V1000ZM700 700H500V500H700V700ZM700 400H500V200H700V400ZM950 1000H800V800H1000V950C1000 977.5 977.5 1000 950 1000ZM1000 700H800V500H1000V700ZM1000 400H800V200H950C977.5 200 1000 222.5 1000 250V400Z" fill="#1D1E23"/></g><defs><clipPath id="clip0_238_2753"><path width="24" fill="white" d="M0 0H1200V1200H0V0z"/></clipPath></defs></svg>
